X:638
T:The Russian Dance
C:Ashover Book, c. 1764
M:2/4
L:1/8
S:Colin Hume's website,  colinhume.com  - chords can also be printed below the stave.
Q:1/4=108
K:C
P:A
|: (3a/g/f/ | "C"ec"G7"Bd | "C"c C-"F"C F | "C"EG"D7"Ac | "G"Bd-"G7"d g/f/ |\
"C"ec"G7"Bd | "C"c C-"F"C F | "C"EG "G7"eB | "C"c2- "/"c :|
P:B
|: B/c/ | "G7"dB "/"Gf | "C"e g-"G7"g (3a/g/f/ | "Am"ec"D7"Bd | "G"g G-"G7"GF |\
"C"EG"C7"cE | "F"F a-"Dm"a g/f/ | "C"ec"G7"GB | "C"c2- "/"c :|

